!!!!SEGMENT: pl-wtm--r-1461--017_stefani-jozef--wszechstronne-cwiczenia-glosowe-allegro-moderato.krn
!!!cenid: 18xx:2194
!!!COM: Stefani, Józef
!!!COM-rismid: pe30024097
!!!CDT: 1800/04/16-1876/03/19
!!!CNT: Polish
!!!GTL: Wszechstronne ćwiczenia głosowe
!!!OTL: Allegro moderato
!!!PDT:
!!!AGN: Secular
!!!SMS-siglum: PL-Wtm
!!!SMS-shelfmark: R 1461
!!!SMS-shelfwork: 017 G
!!!SMS-variant:
!!!SMS-altvar:
!!!NIFC-rismid: 1001120710
!!!OMD: Allegro moderato
!!!system-decoration: s1{(s2,s3)}
!!!key:
**kern	**kern	**dynam	**kern	**text	**dynam
*part2	*part2	*part2	*part1	*part1	*part1
*staff3	*staff2	*	*staff1	*staff1	*
*Iempty	*Iforte	*	*Itenor	*	*
*	*I"Fortepian	*	*I"Soprano/Tenore	*	*
*	*I'pf	*	*I'S/T	*	*
*clefF4	*clefG2	*	*clefG2	*	*
*k[]	*k[]	*	*k[]	*	*
*C:	*C:	*	*C:	*	*
*M4/4	*M4/4	*	*M4/4	*	*
*met(c)	*met(c)	*	*met(c)	*	*
=1	=1	=1	=1	=1	=1
*2\right	*2\right	*	*2\right	*	*
!!LO:TX:t=P:problem:all\right:global
[>1C [<1CC	[>1c [>1G< [>1E<	.	4c/	do	<
.	.	.	4e/	mi	.
.	.	.	4g/	sol	.
.	.	.	4cc\	do	[[
=2	=2	=2	=2	=2	=2
1C] 1CC]	1c] 1G<] 1E<]	.	4cc\	do	>
.	.	.	4g/	sol	.
.	.	.	4e/	mi	.
.	.	.	4c/	do	]
=3	=3	=3	=3	=3	=3
[>1C [<1CC	[>1c [>1A< [>1F<	.	4c/	do	<
.	.	.	4f/	fa	.
.	.	.	4a/	la	.
.	.	.	4cc\	do	[[
=4	=4	=4	=4	=4	=4
1C] 1CC]	1c] 1A<] 1F<]	.	4cc\	do	>
.	.	.	4a/	la	.
.	.	.	4f/	fa	]
.	.	.	4c/	do	.
!!LO:LB:g=original
=5	=5	=5	=5	=5	=5
[>1C [<1CC	[>1c [>1G< [>1E<	.	4c/	do	<
.	.	.	4e/	mi	.
.	.	.	4g/	sol	.
.	.	.	4cc/	do	[[
=6	=6	=6	=6	=6	=6
1C] 1CC]	1c] 1G<] 1E<]	.	4cc/	do	>
.	.	.	4g/	sol	.
.	.	.	4e/	mi	.
.	.	.	4c/	do	]
=7	=7	=7	=7	=7	=7
!	!	!	!	!	!LO:HP:b
[>1C [<1CC	[>1c [>1G< [>1E<	.	(<8c/L	a	<
.	.	.	8e/	.	.
.	.	.	8g/	.	.
.	.	.	8cc/J	.	.
.	.	.	8ee/L	.	.
.	.	.	8cc/	.	.
!	!	!	!	!	!LO:HP:b
.	.	.	8g/	.	[ >
.	.	.	8e/J)	.	]]
=8	=8	=8	=8	=8	=8
4C] 4CC\]	4c] 4G<] 4E</]	.	2.c/	.	.
4C 4CC\	(>4c 4G< 4E<'>/	.	.	.	.
4C 4CC\	4c 4G< 4E<'>/	.	.	.	.
4C 4CC\	4c 4G< 4E<'>/)	.	4r	.	.
=9	=9	=9	=9	=9	=9
!	!	!	!	!	!LO:HP:b
[>1C [<1CC	[>1c [>1A< [>1F<	.	(8c/L	a	<
.	.	.	8f/	.	.
.	.	.	8a/	.	.
.	.	.	8cc/J	.	.
!	!	!	!	!	!LO:HP:b
.	.	.	8ff/L	.	[ >
.	.	.	8cc/	.	.
.	.	.	8a/	.	.
.	.	.	8f/J)	.	]]
!!LO:LB:g=original
=10	=10	=10	=10	=10	=10
4C] 4CC\]	4c] 4A<] 4F</]	.	2.c/	.	.
4C 4CC\	(>4c 4A< 4F<'>/	.	.	.	.
4C 4CC\	4c 4A< 4F<'>/	.	.	.	.
4C 4CC\	4c 4A< 4F<'>/)	.	4r	.	.
=11	=11	=11	=11	=11	=11
[>1C [<1CC	[>1c [>1G< [>1E<	.	8c/L	a	.
.	.	.	8e/	.	.
.	.	.	8g/	.	.
.	.	.	8cc/J	.	.
.	.	.	8ee/L	.	.
.	.	.	8cc/	.	.
.	.	.	8g/	.	.
.	.	.	8e/J	.	.
=12	=12	=12	=12	=12	=12
4C] 4CC\]	4c] 4G<] 4E</]	.	2.c/	.	.
4C 4CC\	(>4c 4G< 4E<'>/	.	.	.	.
4C 4CC\	4c 4G< 4E<'>/	.	.	.	.
4C 4CC\	4c 4G< 4E<'>/)	.	4r	.	.
=13	=13	=13	=13||	=13||	=13||
[>1C [<1CC	[>1c [>1G< [>1E-X<	.	4c/	do	.
.	.	.	4e-X/	mis	.
.	.	.	4g/	sol	.
.	.	.	4cc/	do	.
=14	=14	=14	=14	=14	=14
!	!LO:TX:t=P:problem=w źródle wytarty bemol przy 1E-	!	!	!	!
1C] 1CC]	1c] 1G<] 1E-<]	.	4cc/	do	.
.	.	.	4g/	sol	.
.	.	.	4e-X/	mis	.
.	.	.	4c/	do	.
!!LO:LB:g=original
=15	=15	=15	=15	=15	=15
[>1C [<1CC	[>1c [>1A-X< [>1F<	.	4c/	do	.
!	!	!	!	!	!LO:HP:b
.	.	.	4f/	fa	<
.	.	.	4a-X/	las	.
.	.	.	4cc/	do	[[
=16	=16	=16	=16	=16	=16
!	!LO:TX:t=P:problem=w źródle wytarty bemol przy 1A-	!	!	!	!
!	!	!	!	!	!LO:HP:b
1C] 1CC]	1c] 1A-<] 1F<]	.	4cc/	do	>
.	.	.	4a-X/	las	.
.	.	.	4f/	fa	]
.	.	.	4c/	do	.
=17	=17	=17	=17	=17	=17
!	!	!	!	!	!LO:HP:b
[>1C [<1CC	[>1c [>1G< [>1E-X<	.	4c/	do	<
.	.	.	4e-X/	mis	.
.	.	.	4g/	sol	.
.	.	.	4cc/	do	[[
=18	=18	=18	=18	=18	=18
!	!LO:TX:t=P:problem=w źródle wytarty bemol przy 1E-	!	!	!	!
!	!	!	!	!	!LO:HP:b
1C] 1CC]	1c] 1G<] 1E-<]	.	4cc/	do	>
.	.	.	4g/	sol	.
.	.	.	4e-X/	mis	]
.	.	.	4c/	do	.
!!LO:PB:g=original
=19	=19	=19	=19	=19	=19
!	!	!	!	!	!LO:HP:b
[>1C [<1CC	[>1c [>1G< [>1E-X<	.	(8c/L	a	<
.	.	.	8e-X/	.	.
.	.	.	8g/	.	.
.	.	.	8cc/J	.	.
.	.	.	8ee-X/L	.	.
.	.	.	8cc/	.	.
!	!	!	!	!	!LO:HP:b
.	.	.	8g/	.	[ >
.	.	.	8e-/J)	.	]]
=20	=20	=20	=20	=20	=20
4C] 4CC\]	4c] 4G<] 4E-</]	.	2.c/	.	.
4C 4CC\	(>4c 4G< 4E-X<'>/	.	.	.	.
4C 4CC\	4c 4G< 4E-<'>/	.	.	.	.
4C 4CC\	4c 4G< 4E-<'>/)	.	4r	.	.
=21	=21	=21	=21	=21	=21
!	!	!	!	!	!LO:HP:b
[>1C [<1CC	[>1c [>1A-X< [>1F<	.	(8c/L	a	<
.	.	.	8f/	.	.
.	.	.	8a-X/	.	.
.	.	.	8cc/J	.	.
.	.	.	8ff/L	.	.
!	!	!	!	!	!LO:HP:b
.	.	.	8cc/	.	[ >
.	.	.	8a-/	.	.
.	.	.	8f/J)	.	]]
=22	=22	=22	=22	=22	=22
4C] 4CC\]	4c] 4A-<] 4F</]	.	2.c/	.	.
4C 4CC\	(>4c 4A-X< 4F<'>/	.	.	.	.
4C 4CC\	4c 4A-< 4F<'>/	.	.	.	.
4C 4CC\	4c 4A-< 4F<'>/)	.	4r	.	.
=23	=23	=23	=23	=23	=23
!	!	!	!	!	!LO:HP:b
[>1C [<1CC	[>1c [>1G< [>1E-X<	.	(8c/L	a	<
.	.	.	8e-X/	.	.
.	.	.	8g/	.	.
.	.	.	8cc/J	.	.
.	.	.	8ee-X/L	.	.
.	.	.	8cc/	.	.
!	!	!	!	!	!LO:HP:b
.	.	.	8g/	.	[ >
.	.	.	8e-/J)	.	]]
!!LO:LB:g=original
=24	=24	=24	=24	=24	=24
4C] 4CC\]	4c] 4G<] 4E-X</]	.	2.c/	.	.
4C 4CC\	(>4c 4G< 4E-<'>/	.	.	.	.
4C 4CC\	4c 4G< 4E-<'>/	.	.	.	.
!	!LO:TX:a:t=P:problem=w źródle akcent znajduję sie pod nutą 4c	!	!	!	!
4AA-X 4AAA-X\	4c^< 4A-X< 4G-X< 4E-<'>/)	.	4r	.	.
=25||	=25||	=25||	=25||	=25||	=25||
[>1D-X [<1DD-X	[>1d-X [>1A-X< [>1F<	.	4d-X/	do	.
!	!	!	!	!	!LO:HP:b
.	.	.	4f/	mi	<
.	.	.	4a-X/	sol	.
.	.	.	4dd-X\	do	[[
=26	=26	=26	=26	=26	=26
!	!	!	!	!	!LO:HP:b
1D-] 1DD-]	1d-] 1A-<] 1F<]	.	4dd-X\	do	>
.	.	.	4a-X/	sol	]]
.	.	.	4f/	mi	.
.	.	.	4d-X/	do	.
=27	=27	=27	=27	=27	=27
!	!	!	!	!	!LO:HP:b
[>1D-X [<1DD-X	[>1d-X [>1B-X< [>1G-X<	.	4d-X/	do	<
.	.	.	4g-X/	fa	.
.	.	.	4b-X/	la	.
.	.	.	4dd-X/	do	[[
=28	=28	=28	=28	=28	=28
!	!	!	!	!	!LO:HP:b
1D-] 1DD-]	1d-] 1B-<] 1G-<]	.	4dd-X/	do	>
.	.	.	4b-X/	la	]
.	.	.	4g-X/	fa	.
.	.	.	4d-X/	do	.
!!LO:LB:g=original
=29	=29	=29	=29	=29	=29
[>1D-X [<1DD-X	[>1d-X [>1A-X< [>1F<	.	4d-X/	do	.
!	!	!	!	!	!LO:HP:b
.	.	.	4f/	mi	<
.	.	.	4a-X/	sol	.
.	.	.	4dd-X\	do	[[
=30	=30	=30	=30	=30	=30
!	!	!	!	!	!LO:HP:b
1D-] 1DD-]	1d-] 1A-<] 1F<]	.	4dd-X\	do	>
.	.	.	4a-X/	sol	.
.	.	.	4f/	mi	]
.	.	.	4d-X/	do	.
=31	=31	=31	=31	=31	=31
!	!	!	!	!	!LO:HP:b
[>1D-X [<1DD-X	[>1d-X [>1A-X< [>1F<	.	(<8d-X/L	a	<
.	.	.	8f/	.	.
.	.	.	8a-X/	.	.
.	.	.	8dd-X/J	.	.
.	.	.	8ff/L	.	.
.	.	.	8dd-/	.	.
!	!	!	!	!	!LO:HP:b
.	.	.	8a-/	.	[ >
.	.	.	8f/J)	.	.
=32	=32	=32	=32	=32	=32
4D-] 4DD-\]	4d-] 4A-<] 4F</]	.	2.d-X/	.	]
4D-X 4DD-X\	(>4d-X 4A-X< 4F<'>/	.	.	.	.
4D- 4DD-\	4d- 4A-< 4F<'>/	.	.	.	.
4D- 4DD-\	4d- 4A-< 4F<'>/)	.	4r	.	.
=33	=33	=33	=33	=33	=33
!	!	!	!	!	!LO:HP:b
[>1D-X [<1DD-X	[>1d-X [>1B-X< [>1G-X<	.	(<8d-X/L	a	<
.	.	.	8g-X/	.	.
.	.	.	8b-X/	.	.
.	.	.	8dd-X/J	.	.
!	!	!	!	!	!LO:HP:b
.	.	.	8gg-X/L	.	[ >
.	.	.	8dd-/	.	.
.	.	.	8b-/	.	.
.	.	.	8g-/J)	.	]]
!!LO:LB:g=original
=34	=34	=34	=34	=34	=34
4D-] 4DD-\]	4d-] 4B-<] 4G-</]	.	2.d-X/	.	.
4D-X 4DD-X\	(>4d-X 4B-X< 4G-X<'>/	.	.	.	.
4D- 4DD-\	4d- 4B-< 4G-<'>/	.	.	.	.
4D- 4DD-\	4d- 4B-< 4G-<'>/)	.	4r	.	.
=35	=35	=35	=35	=35	=35
!	!	!	!	!	!LO:HP:b
[>1D-X [<1DD-X	[>1d-X [>1A-X< [>1F<	.	(<8d-X/L	a	<
.	.	.	8f/	.	.
.	.	.	8a-X/	.	.
.	.	.	8dd-X/J	.	.
.	.	.	8ff/L	.	.
.	.	.	8dd-/	.	.
!	!	!	!	!	!LO:HP:b
.	.	.	8a-/	.	[ >
.	.	.	8f/J)	.	]]
=36	=36	=36	=36	=36	=36
4D-] 4DD-\]	4d-] 4A-<] 4F</]	.	2.d-X/	.	.
4D-X 4DD-X\	(>4d-X 4A-X< 4F<'>/	.	.	.	.
4D- 4DD-\	4d- 4A-< 4F<'>/	.	.	.	.
4D- 4DD-\	4d- 4A-< 4F<'>/)	.	4r	.	.
=37	=37	=37	=37	=37	=37
!	!	!	!	!	!LO:HP:b
[>1D-X [<1DD-X	[>1d-X [>1A-X< [>1F-X<	.	4d-X/	do	<
.	.	.	4f-X/	mis	.
.	.	.	4a-X/	sol	.
.	.	.	4dd-X/	do	[[
=38	=38	=38	=38	=38	=38
!	!	!	!	!	!LO:HP:b
1D-] 1DD-]	1d-] 1A-<] 1F-<]	.	4dd-X/	do	>
.	.	.	4a-X/	sol	.
.	.	.	4f-X/	mis	]
.	.	.	4d-X/	do	.
!!LO:PB:g=original
=39	=39	=39	=39	=39	=39
[>1D-X [<1DD-X	[>1d-X [>1B--< [>1G-X<	.	4d-X/	do	.
.	.	.	4g-X/	fa	<
.	.	.	4b--/	las	.
.	.	.	4dd-X/	do	.
=40	=40	=40	=40	=40	=40
1D-] 1DD-]	1d-] 1B--<] 1G-<]	.	4dd-X/	do	[ >
.	.	.	4b--/	las	.
.	.	.	4g-X/	fa	.
.	.	.	4d-X/	do	]
=41	=41	=41	=41	=41	=41
[>1D-X [<1DD-X	[>1d-X [>1A-X< [>1F-X<	.	4d-X/	do	<
.	.	.	4f-X/	mis	.
.	.	.	4a-X/	sol	.
.	.	.	4dd-X/	do	[[
=42	=42	=42	=42	=42	=42
1D-] 1DD-]	1d-] 1A-<] 1F-<]	.	4dd-X/	do	>
.	.	.	4a-X/	sol	.
.	.	.	4f-X/	mis	]]
.	.	.	4d-X/	do	.
!!LO:LB:g=original
=43	=43	=43	=43	=43	=43
!	!	!	!	!	!LO:HP:b
[>1D-X [<1DD-X	[>1d-X [>1A-X< [>1F-X<	.	(<8d-X/L	a	<
.	.	.	8f-X/	.	.
.	.	.	8a-X/	.	.
.	.	.	8dd-X/J	.	.
!	!	!	!	!	!LO:HP:b
.	.	.	8ff-X/L	.	[ >
.	.	.	8dd-/	.	.
.	.	.	8a-/	.	.
.	.	.	8f-/J)	.	]
=44	=44	=44	=44	=44	=44
4D-] 4DD-\]	4d-] 4A-<] 4F<-/]	.	2.d-X/	.	.
4D-X 4DD-X\	(>4d-X 4A-X< 4F-X<'>/	.	.	.	.
4D- 4DD-\	4d- 4A-< 4F-<'>/	.	.	.	.
4D- 4DD-\	4d- 4A-< 4F-<'>/)	.	4r	.	.
=45	=45	=45	=45	=45	=45
!	!	!	!	!	!LO:HP:b
1D-X 1DD-X	1d-X 1B--< 1G-X<	.	(<8d-X/L	a	<
.	.	.	8g-X/	.	.
.	.	.	8b--/	.	.
.	.	.	8dd-X/J	.	.
.	.	.	8gg-X/L	.	.
.	.	.	8dd-/	.	.
!	!	!	!	!	!LO:HP:b
.	.	.	8b--/	.	[ >
.	.	.	8g-/J)	.	]]
=46	=46	=46	=46	=46	=46
4D- 4DD-\	4d- 4B--< 4G-</	.	2.d-X/	.	.
4D-X 4DD-X\	(>4d-X 4B--< 4G-X<'>/	.	.	.	.
4D- 4DD-\	4d- 4B--< 4G-<'>/	.	.	.	.
4D- 4DD-\	4d- 4B--< 4G-<'>/)	.	4r	.	.
!!LO:LB:g=original
=47	=47	=47	=47	=47	=47
!	!	!	!	!	!LO:HP:b
[>1D-X [<1DD-X	[>1d-X [>1A-X< [>1F-X<	.	(<8d-X/L	a	<
.	.	.	8f-X/	.	.
.	.	.	8a-X/	.	.
.	.	.	8dd-X/J	.	.
!	!	!	!	!	!LO:HP:b
.	.	.	8ff-X/L	.	[ >
.	.	.	8dd-/	.	.
.	.	.	8a-/	.	.
.	.	.	8f-/J)	.	]
=48	=48	=48	=48	=48	=48
4D-] 4DD-\]	4d-] 4A-<] 4F-</]	.	2.d-X/	.	.
4D-X 4DD-X\	4d-X 4A-X< 4F-X</	.	.	.	.
4D- 4DD-\	4d- 4A<- 4F-</	.	.	.	.
4AAn 4AAAn\	4c#X 4An< 4Gn< 4En</	.	4r	.	.
=49||	=49||	=49||	=49||	=49||	=49||
[>1D [<1DD	[>1d [>1A< [>1F#X<	.	4d/	do	.
.	.	.	4f#X/	mi	.
.	.	.	4a/	sol	.
.	.	.	4dd/	do	.
=50	=50	=50	=50	=50	=50
1D] 1DD]	1d] 1A<] 1F#<]	.	4dd/	do	.
.	.	.	4a/	sol	.
.	.	.	4f#X/	mi	.
.	.	.	4d/	do	.
!!LO:LB:g=original
=51	=51	=51	=51	=51	=51
[>1D [<1DD	[>1d [>1B< [>1G<	.	4d/	do	.
.	.	.	4g/	fa	.
.	.	.	4b/	la	.
.	.	.	4dd/	do	.
=52	=52	=52	=52	=52	=52
1D] 1DD]	1d] 1B<] 1G<]	.	4dd/	do	.
.	.	.	4b/	la	.
.	.	.	4g/	fa	.
.	.	.	4d/	do	.
=53	=53	=53	=53	=53	=53
[>1D [<1DD	[>1d [>1A< [>1F#X<	.	4d/	do	.
.	.	.	4f#X/	mi	.
.	.	.	4a/	sol	.
.	.	.	4dd/	do	.
=54	=54	=54	=54	=54	=54
!	!LO:TX:b:t=P:problem=w źródle wytarty # przy 1F#	!	!	!	!
1D] 1DD]	1d] 1A<] 1F#<]	.	4dd/	do	.
.	.	.	4a/	sol	.
.	.	.	4f#X/	mi	.
.	.	.	4d/	do	.
!!LO:PB:g=original
=55	=55	=55	=55	=55	=55
!	!	!	!	!	!LO:HP:b
[>1D [<1DD	[>1d [>1A< [>1F#X<	.	(<8d/L	a	<
.	.	.	8f#X/	.	.
.	.	.	8a/	.	.
.	.	.	8dd/J	.	.
!	!	!	!	!	!LO:HP:b
.	.	.	8ff#X/L	.	[ >
.	.	.	8dd/	.	.
.	.	.	8a/	.	.
.	.	.	8f#/J)	.	]]
=56	=56	=56	=56	=56	=56
4D] 4DD\]	4d] 4A<] 4F#</]	.	2.d/	.	.
4D 4DD\	(>4d 4A< 4F#X<'>/	.	.	.	.
4D 4DD\	4d 4A< 4F#<'>/	.	.	.	.
4D 4DD\	4d 4A< 4F#<'>/)	.	4r	.	.
=57	=57	=57	=57	=57	=57
!	!	!	!	!	!LO:HP:b
[>1D [<1DD	[>1d [>1B< [>1G<	.	(>8d/L	a	<
.	.	.	8g/	.	.
.	.	.	8b/	.	.
.	.	.	8dd/J	.	.
!	!	!	!	!	!LO:HP:b
.	.	.	8gg\L	.	[ >
.	.	.	8dd\	.	.
.	.	.	8b\	.	.
.	.	.	8g\J)	.	]]
=58	=58	=58	=58	=58	=58
4D] 4DD\]	4d] 4B<] 4G</]	.	2.d/	.	.
4D 4DD\	(>4d 4B< 4G<'>/	.	.	.	.
4D 4DD\	4d 4B< 4G<'>/	.	.	.	.
4D 4DD\	4d 4B< 4G<'>/)	.	4r	.	.
!!LO:LB:g=original
=59	=59	=59	=59	=59	=59
!	!	!	!	!	!LO:HP:b
[>1D [<1DD	[>1d [>1A< [>1F#X<	.	(<8d/L	a	<
.	.	.	8f#X/	.	.
.	.	.	8a/	.	.
.	.	.	8dd/J	.	.
!	!	!	!	!	!LO:HP:b
.	.	.	8ff#X/L	.	[ >
.	.	.	8dd/	.	.
.	.	.	8a/	.	.
.	.	.	8f#/J)	.	]]
=60	=60	=60	=60	=60	=60
4D] 4DD\]	4d] 4A<] 4F#</]	.	2.d/	.	.
4D 4DD\	(>4d 4A< 4F#X<'>/	.	.	.	.
4D 4DD\	4d 4A< 4F#<'>/	.	.	.	.
4D 4DD\	4d 4A< 4F#<'>/)	.	4r	.	.
=61	=61	=61	=61	=61	=61
[>1D [<1DD	[>1d [>1A< [>1Fn<	.	4d/	do	.
!	!	!	!LO:TX:t=P:problem=w źródle 'fa' poprawione na 'mis'	!	!
!	!	!	!	!	!LO:HP:b
.	.	.	4fn/	mis	<
.	.	.	4a/	sol	.
.	.	.	4dd\	do	[[
=62	=62	=62	=62	=62	=62
!	!	!	!	!	!LO:HP:b
1D] 1DD]	1d] 1A<] 1F<]	.	4dd\	do	>
.	.	.	4a/	sol	.
.	.	.	4fn/	mis	]
.	.	.	4d/	do	.
!!LO:LB:g=original
=63	=63	=63	=63	=63	=63
[>1D [<1DD	[>1d [>1B-X< [>1G<	.	4d/	do	.
.	.	.	4g/	fa	.
!	!	!	!	!	!LO:HP:b
.	.	.	4b-X/	las	<
.	.	.	4dd/	do	[[
=64	=64	=64	=64	=64	=64
!	!	!	!	!	!LO:HP:b
1D] 1DD]	1d] 1B-<] 1G<]	.	4dd/	do	>
.	.	.	4b-X/	las	]]
.	.	.	4g/	fa	.
.	.	.	4d/	do	.
=65	=65	=65	=65	=65	=65
[>1D [<1DD	[>1d [>1A< [>1F<	.	4d/	do	.
!	!	!	!	!	!LO:HP:b
.	.	.	4f/	mi	<
.	.	.	4a/	sol	.
.	.	.	4dd\	do	[[
=66	=66	=66	=66	=66	=66
!	!	!	!	!	!LO:HP:b
1D] 1DD]	1d] 1A<] 1F<]	.	4dd\	do	>
.	.	.	4a/	sol	.
.	.	.	4f/	mi	]
.	.	.	4d/	do	.
=67	=67	=67	=67	=67	=67
!	!	!	!	!	!LO:HP:b
[>1D [<1DD	[>1d [>1A< [>1F<	.	(<8d/L	a	<
.	.	.	8f/	.	.
.	.	.	8a/	.	.
.	.	.	8dd/J	.	.
.	.	.	8ff/L	.	.
.	.	.	8dd/	.	.
!	!	!	!	!	!LO:HP:b
.	.	.	8a/	.	[ >
.	.	.	8f/J)	.	]]
!!LO:LB:g=original
=68	=68	=68	=68	=68	=68
4D] 4DD\]	4d] 4A<] 4F</]	.	2.d/	.	.
4D 4DD\	(>4d 4A< 4F<'>/	.	.	.	.
4D 4DD\	4d 4A< 4F<'>/	.	.	.	.
4D 4DD\	4d 4A< 4F<'>/)	.	4r	.	.
=69	=69	=69	=69	=69	=69
!	!	!	!	!	!LO:HP:b
[>1D [<1DD	[>1d [>1B-X< [>1G<	.	(<8d/L	a	<
.	.	.	8g/	.	.
.	.	.	8b-X/	.	.
.	.	.	8dd/J	.	.
!	!	!	!	!	!LO:HP:b
.	.	.	8gg/L	.	[ >
.	.	.	8dd/	.	.
.	.	.	8b-/	.	.
.	.	.	8g/J)	.	]]
=70	=70	=70	=70	=70	=70
4D] 4DD\]	4d] 4B-<] 4G</]	.	2.d/	.	.
4D 4DD\	(>4d 4B-y< 4G<'>/	.	.	.	.
4D 4DD\	4d 4By< 4G<'>/	.	.	.	.
4D 4DD\	4d 4By< 4G<'>/)	.	4r	.	.
=71	=71	=71	=71	=71	=71
!	!	!	!	!	!LO:HP:b
[>1D [<1DD	[>1d [>1A< [>1F<	.	(<8d/L	a	<
.	.	.	8f/	.	.
.	.	.	8a/	.	.
.	.	.	8dd/J	.	.
!	!	!	!	!	!LO:HP:b
.	.	.	8ff/L	.	[ >
.	.	.	8dd/	.	.
.	.	.	8a/	.	.
.	.	.	8f/J)	.	]]
=72	=72	=72	=72	=72	=72
4D] 4DD\]	4d] 4A<] 4F</]	.	2.d/	.	.
4D 4DD\	(>4d 4A< 4F<'>/	.	.	.	.
4D 4DD\	4d 4A< 4F<'>/	.	.	.	.
!	!LO:TX:a:t=P:problem=w źródle akcent znajduję sie pod nutą 4d	!	!	!	!
4BB-X 4BBB-X\	4d^< 4B-X< 4A-X< 4Fn<'>/)	.	4r	.	.
!!LO:PB:g=original
=73||	=73||	=73||	=73||	=73||	=73||
!	!	!	!	!	!LO:HP:b
[>1E-X [<1EE-X	[>1e-X [>1B-X< [>1G<	.	4e-X/	do	<
.	.	.	4g/	mi	.
.	.	.	4b-X/	sol	.
.	.	.	4ee-X\	do	[[
=74	=74	=74	=74	=74	=74
!	!	!	!	!	!LO:HP:b
1E-] 1EE-]	1e-] 1B-<] 1G<]	.	4ee-X\	do	>
.	.	.	4b-X/	sol	.
.	.	.	4g/	mi	.
.	.	.	4e-X/	do	]
=75	=75	=75	=75	=75	=75
!	!	!	!	!	!LO:HP:b
[>1E-X [<1EE-X	[>1e-X [>1c< [>1A-X<	.	4e-X/	do	<
.	.	.	4a-X/	fa	.
.	.	.	4cc\	la	.
.	.	.	4ee-X\	do	[[
=76	=76	=76	=76	=76	=76
!	!	!	!	!	!LO:HP:b
1E-] 1EE-]	1e-] 1c<] 1A-<]	.	4ee-X\	do	>
.	.	.	4cc\	la	.
.	.	.	4a-X/	fa	]
.	.	.	4e-X/	do	.
!!LO:LB:g=original
=77	=77	=77	=77	=77	=77
!	!	!	!	!	!LO:HP:b
[>1E-X [<1EE-X	[>1e-X [>1B-X< [>1G<	.	4e-X/	do	<
.	.	.	4g/	mi	.
.	.	.	4b-X/	sol	.
.	.	.	4ee-X\	do	[[
=78	=78	=78	=78	=78	=78
!	!	!	!	!	!LO:HP:b
1E-] 1EE-]	1e-] 1B-<] 1G<]	.	4ee-X\	do	>
.	.	.	4b-X/	sol	.
.	.	.	4g/	mi	.
.	.	.	4e-X/	do	]
=79	=79	=79	=79	=79	=79
!	!	!	!	!	!LO:HP:b
[>1E-X [<1EE-X	[>1e-X [>1B-X< [>1G<	.	(>8e-X/L	a	<
.	.	.	8g/	.	.
.	.	.	8b-X/	.	.
.	.	.	8ee-X/J	.	.
!	!	!	!	!	!LO:HP:b
.	.	.	8gg/L	.	[ >
.	.	.	8ee-/	.	.
.	.	.	8b-/	.	.
.	.	.	8g/J)	.	]]
=80	=80	=80	=80	=80	=80
4E-] 4EE-\]	4e-] 4B-<] 4G</]	.	2.e-X/	.	.
4E-X 4EE-X\	(>4e-X 4B-X< 4G<'>/	.	.	.	.
4E- 4EE-\	4e- 4B-< 4G<'>/	.	.	.	.
4E- 4EE-\	4e- 4B-< 4G<'>/)	.	4r	.	.
!!LO:LB:g=original
=81	=81	=81	=81	=81	=81
[>1E-X [<1EE-X	[>1e-X [>1c< [>1A-X<	.	8e-X/L	a	.
.	.	.	8a-X/	.	.
.	.	.	8cc/	.	.
.	.	.	8ee-X/J	.	.
.	.	.	8aa-X\L	.	.
.	.	.	8ee-\	.	.
.	.	.	8cc\	.	.
.	.	.	8a-\J	.	.
=82	=82	=82	=82	=82	=82
4E-] 4EE-\]	4e-] 4c<] 4A-</]	.	2.e-X/	.	.
4E-X 4EE-X\	(>4e-X 4c< 4A-X<'>/	.	.	.	.
4E- 4EE-\	4e- 4c< 4A-<'>/	.	.	.	.
4E- 4EE-\	4e- 4c< 4A-<'>/)	.	4r	.	.
=83	=83	=83	=83	=83	=83
[>1E-X [<1EE-X	[>1e-X [>1B-X< [>1G<	.	8e-X/L	a	.
.	.	.	8g/	.	.
.	.	.	8b-X/	.	.
.	.	.	8ee-X/J	.	.
.	.	.	8gg/L	.	.
.	.	.	8ee-/	.	.
.	.	.	8b-/	.	.
.	.	.	8g/J	.	.
=84	=84	=84	=84	=84	=84
4E-] 4EE-\]	4e-] 4B-<] 4G</]	.	2.e-X/	.	.
4E-X 4EE-X\	(>4e-X 4B-X< 4G<'>/	.	.	.	.
4E- 4EE-\	4e- 4B-< 4G<'>/	.	.	.	.
4E- 4EE-\	4e- 4B-< 4G<'>/)	.	4r	.	.
!!LO:LB:g=original
=85	=85	=85	=85	=85	=85
[>1E-X [<1EE-X	[>1e-X [>1B-X< [>1G-X<	.	4e-X/	do	.
.	.	.	4g-X/	mis	.
.	.	.	4b-X/	sol	.
.	.	.	4ee-X\	do	.
=86	=86	=86	=86	=86	=86
1E-] 1EE-]	1e-] 1B-<] 1G-<]	.	4ee-X\	do	.
.	.	.	4b-X\	sol	.
.	.	.	4g-X/	mis	.
.	.	.	4e-X/	do	.
=87	=87	=87	=87	=87	=87
[>1E-X [<1EE-X	[>1e-X [>1c-X< [>1A-X<	.	4e-X/	do	.
.	.	.	4a-X/	fa	.
.	.	.	4cc-X/	las	.
.	.	.	4ee-X\	do	.
=88	=88	=88	=88	=88	=88
1E-] 1EE-]	1e-] 1c-<] 1A-<]	.	4ee-X\	do	.
.	.	.	4cc-X\	las	.
.	.	.	4a-X/	fa	.
.	.	.	4e-X/	do	.
=89	=89	=89	=89	=89	=89
!	!LO:N:n=1:vis=2	!	!	!	!
[>1E-X [<1EE-X	[>1e-X [>1B-X< [>1G-X<	.	4e-X/	do	.
.	.	.	4g-X/	mis	.
.	.	.	4b-X/	sol	.
.	.	.	4ee-X/	do	.
=90	=90	=90	=90	=90	=90
1E-] 1EE-]	1e-] 1B-<] 1G-<]	.	4ee-X/	do	.
.	.	.	4b-X/	sol	.
.	.	.	4g-X/	mis	.
.	.	.	4e-X/	do	.
!!LO:PB:g=original
=91	=91	=91	=91	=91	=91
!	!	!	!	!	!LO:HP:b
[>1E-X [<1EE-X	[>1e-X [>1B-X< [>1G-X<	.	(>8e-X/L	a	<
.	.	.	8g-X/	.	.
.	.	.	8b-X/	.	.
.	.	.	8ee-X/J	.	.
!	!	!	!	!	!LO:HP:b
.	.	.	8gg-X/L	.	[ >
.	.	.	8ee-/	.	.
.	.	.	8b-/	.	.
.	.	.	8g-/J)	.	]
=92	=92	=92	=92	=92	=92
!	!	!	!LO:SIC:v:s=2.e-/	!	!
4E-] 4EE-\]	4e-] 4B-<] 4G-</]	.	2.e/	.	.
4E-X 4EE-X\	(>4e-X 4B-X< 4G-X<'>/	.	.	.	.
4E- 4EE-\	4e- 4B-< 4G-<'>/	.	.	.	.
4E- 4EE-\	4e- 4B-< 4G-<'>/)	.	4r	.	.
=93	=93	=93	=93	=93	=93
!	!	!	!	!	!LO:HP:b
[>1E-X [<1EE-X	[>1e-X [>1c-X< [>1A-X<	.	(>8e-X/L	a	<
.	.	.	8a-X/	.	.
.	.	.	8cc-X/	.	.
.	.	.	8ee-X/J	.	.
!	!	!	!	!	!LO:HP:b
.	.	.	8aa-X\L	.	[ >
.	.	.	8ee-\	.	.
.	.	.	8cc-\	.	.
.	.	.	8a-\J)	.	]]
=94	=94	=94	=94	=94	=94
!	!	!	!LO:SIC:v:s=2.e-/	!	!
4E-] 4EE-\]	4e-] 4c-<] 4A-</]	.	2.e/	.	.
4E-X 4EE-X\	(>4e-X 4c-X< 4A-X<'>/	.	.	.	.
4E- 4EE-\	4e- 4c-< 4A-<'>/	.	.	.	.
4E- 4EE-\	4e- 4c-< 4A-<'>/)	.	4r	.	.
!!LO:LB:g=original
=95	=95	=95	=95	=95	=95
!	!	!	!	!	!LO:HP:b
[>1E-X [<1EE-X	[>1e-X [>1B-X< [>1G-X<	.	(<8e-X/L	a	<
.	.	.	8g-X/	.	.
.	.	.	8b-X/	.	.
.	.	.	8ee-X/J	.	.
!	!	!	!	!	!LO:HP:b
.	.	.	8gg-X/L	.	[ >
.	.	.	8ee-/	.	.
.	.	.	8b-/	.	.
.	.	.	8g-/J)	.	]
=96	=96	=96	=96	=96	=96
4E-] 4EE-\]	4e-] 4B-<] 4G-</]	.	2.e-X/	.	.
4E-X 4EE-X\	4e-X 4B-X< 4G-X</	.	.	.	.
4E- 4EE-\	4e- 4B-< 4G-</	.	.	.	.
4BBn 4BBBn\	4d#X 4Bn< 4A< 4F#X<^>/	.	4r	.	.
=97||	=97||	=97||	=97||	=97||	=97||
!	!	!	!	!	!LO:HP:b
[>1E [<1EE	[>1e [>1B< [>1G#X<	.	4e/	do	<
.	.	.	4g#X/	mi	.
.	.	.	4b/	sol	.
.	.	.	4ee/	do	[[
=98	=98	=98	=98	=98	=98
!	!	!	!	!	!LO:HP:b
1E] 1EE]	1e] 1B<] 1G#X<]	.	4ee/	do	>
.	.	.	4b/	sol	.
.	.	.	4g#X/	mi	]
.	.	.	4e/	do	.
!!LO:LB:g=original
=99	=99	=99	=99	=99	=99
[>1E [<1EE	[>1e [>1c#X< [>1A<	.	4e/	do	.
!	!	!	!	!	!LO:HP:b
.	.	.	4a/	fa	<
.	.	.	4cc#X/	la	.
.	.	.	4ee\	do	[[
=100	=100	=100	=100	=100	=100
!	!	!	!	!	!LO:HP:b
1E] 1EE]	1e] 1c#<] 1A<]	.	4ee\	do	>
.	.	.	4cc#X\	la	]]
.	.	.	4a/	fa	.
.	.	.	4e/	do	.
=101	=101	=101	=101	=101	=101
!	!	!	!	!	!LO:HP:b
[>1E [<1EE	[>1e [>1B< [>1G#X<	.	4e/	do	<
.	.	.	4g#X/	mi	.
.	.	.	4b/	sol	.
.	.	.	4ee\	do	[[
=102	=102	=102	=102	=102	=102
!	!	!	!	!	!LO:HP:b
1E] 1EE]	1e] 1B<] 1G#X<]	.	4ee\	do	>
.	.	.	4b\	sol	.
.	.	.	4g#X/	mi	]]
.	.	.	4e/	do	.
=103	=103	=103	=103	=103	=103
!	!	!	!	!	!LO:HP:b
[>1E [<1EE	[>1e [>1B< [>1G#X<	.	(>8e/L	a	<
.	.	.	8g#X/	.	.
.	.	.	8b/	.	.
.	.	.	8ee/J	.	.
!	!	!	!	!	!LO:HP:b
.	.	.	8gg#X/L	.	[ >
.	.	.	8ee/	.	.
.	.	.	8b/	.	.
.	.	.	8g#/J)	.	]]
!!LO:LB:g=original
=104	=104	=104	=104	=104	=104
4E] 4EE\]	4e] 4B<] 4G#</]	.	2.e/	.	.
4E 4EE\	(>4e 4B< 4G#X<'>/	.	.	.	.
4E 4EE\	4e 4B< 4G#<'>/	.	.	.	.
4E 4EE\	4e 4B< 4G#<'>/)	.	4r	.	.
=105	=105	=105	=105	=105	=105
!	!	!	!	!	!LO:HP:b
[>1E [<1EE	[>1e [>1c#X< [>1A<	.	(>8e/L	a	<
.	.	.	8a/	.	.
.	.	.	8cc#X/	.	.
.	.	.	8ee/J	.	.
!	!	!	!	!	!LO:HP:b
.	.	.	8aa\L	.	[ >
.	.	.	8ee\	.	.
.	.	.	8cc#\	.	.
.	.	.	8a\J)	.	]
=106	=106	=106	=106	=106	=106
4E] 4EE\]	4e] 4c#<] 4A</]	.	2.e/	.	.
4E 4EE\	(>4e 4c#X< 4A<'>/	.	.	.	.
4E 4EE\	4e 4c#< 4A<'>/	.	.	.	.
4E 4EE\	4e 4c#< 4A<'>/)	.	4r	.	.
=107	=107	=107	=107	=107	=107
!	!	!	!	!	!LO:HP:b
[>1E [<1EE	[>1e [>1B< [>1G#X<	.	(>8e/L	a	<
.	.	.	8g#X/	.	.
.	.	.	8b/	.	.
.	.	.	8ee/J	.	.
!	!	!	!	!	!LO:HP:b
.	.	.	8gg#X\L	.	[ >
.	.	.	8ee\	.	.
.	.	.	8b\	.	]
.	.	.	8g#\J)	.	.
=108	=108	=108	=108	=108	=108
4E] 4EE\]	4e] 4B<] 4G#</]	.	2.e/	.	.
4E 4EE\	(>4e 4B< 4G#X<'>/	.	.	.	.
4E 4EE\	4e 4B< 4G#<'>/	.	.	.	.
4E 4EE\	4e 4B< 4G#<'>/)	.	4r	.	.
!!LO:PB:g=original
=109	=109	=109	=109	=109	=109
!	!	!	!	!	!LO:HP:b
[>1E [<1EE	[>1e [>1B< [>1G<	.	4e/	do	<
.	.	.	4g/	mis	.
.	.	.	4b/	sol	.
.	.	.	4ee\	do	[[
=110	=110	=110	=110	=110	=110
!	!	!	!	!	!LO:HP:b
1E] 1EE]	1e] 1B<] 1G<]	.	4ee\	do	>
.	.	.	4b\	sol	.
.	.	.	4g/	mis	.
.	.	.	4e/	do	]
=111	=111	=111	=111	=111	=111
!	!	!	!	!	!LO:HP:b
[>1E [<1EE	[>1e [>1c< [>1A<	.	4e/	do	<
.	.	.	4a/	fa	.
.	.	.	4cc/	las	.
.	.	.	4ee\	do	[[
=112	=112	=112	=112	=112	=112
!	!	!	!	!	!LO:HP:b
1E] 1EE]	1e] 1c<] 1A<]	.	4ee\	do	>
.	.	.	4cc\	las	.
.	.	.	4a/	fa	]
.	.	.	4e/	do	.
=113	=113	=113	=113	=113	=113
!	!	!	!	!	!LO:HP:b
[>1E [<1EE	[>1e [>1B< [>1G<	.	4e/	do	<
.	.	.	4g/	mis	.
.	.	.	4b/	sol	.
.	.	.	4ee\	do	[[
=114	=114	=114	=114	=114	=114
!	!	!	!	!	!LO:HP:b
1E] 1EE]	1e] 1B<] 1G<]	.	4ee\	do	>
.	.	.	4b\	sol	.
.	.	.	4g/	mis	]]
.	.	.	4e/	do	.
!!LO:LB:g=original
=115	=115	=115	=115	=115	=115
!	!	!	!	!	!LO:HP:b
[>1E [<1EE	[>1e [>1B< [>1G<	.	(>8e/L	a	<
.	.	.	8g/	.	.
.	.	.	8b/	.	.
.	.	.	8ee/J	.	.
!	!	!	!	!	!LO:HP:b
.	.	.	8gg\L	.	[ >
.	.	.	8ee\	.	.
.	.	.	8b\	.	]]
.	.	.	8g\J	.	.
=116	=116	=116	=116	=116	=116
4E] 4EE\]	4e] 4B<] 4G</]	.	2.e/)	.	.
4E 4EE\	(>4e 4B< 4G<'>/	.	.	.	.
4E 4EE\	4e 4B< 4G<'>/	.	.	.	.
4E 4EE\	4e 4B< 4G<'>/)	.	4r	.	.
=117	=117	=117	=117	=117	=117
!	!	!	!	!	!LO:HP:b
[>1E [<1EE	[>1e [>1c< [>1A<	.	(>8e/L	a	<
.	.	.	8a/	.	.
.	.	.	8cc/	.	.
.	.	.	8ee/J	.	.
!	!	!	!	!	!LO:HP:b
.	.	.	8aa\L	.	[ >
.	.	.	8ee\	.	.
.	.	.	8cc\	.	]]
.	.	.	8a\J	.	.
=118	=118	=118	=118	=118	=118
4E] 4EE\]	4e] 4c<] 4A</]	.	2.e/)	.	.
4E 4EE\	(>4e 4c< 4A<'>/	.	.	.	.
4E 4EE\	4e 4c< 4A<'>/	.	.	.	.
4E 4EE\	4e 4c< 4A<'>/)	.	4r	.	.
=119	=119	=119	=119	=119	=119
!	!	!	!	!	!LO:HP:b
[>1E [<1EE	[>1e [>1B< [>1G<	.	(>8e/L	a	<
.	.	.	8g/	.	.
.	.	.	8b/	.	.
.	.	.	8ee/J	.	.
!	!	!	!	!	!LO:HP:b
.	.	.	8gg\L	.	[ >
.	.	.	8ee\	.	.
.	.	.	8b\	.	]]
!	!	!	!LO:TX:a:t=P:problem=w źródle łuk kończy się za kreską taktową	!	!
.	.	.	8g\J)	.	.
!!LO:LB:g=original
=120	=120	=120	=120	=120	=120
4E] 4EE\]	4e] 4B<] 4G</]	.	2.e/	.	.
4E 4EE\	4e 4B< 4G<'>/	.	.	.	.
4E 4EE\	4e 4B< 4G<'>/	.	.	.	.
4E 4EE\	4e 4B< 4G<'>/	.	4r	.	.
=121	=121	=121	=121	=121	=121
!	!	!	!	!	!LO:HP:b
[>1D [<1DD	[>1f [>1B< [>1G<	.	(>8f/L	a	<
.	.	.	8g/	.	.
.	.	.	8b/	.	.
.	.	.	8dd/J	.	.
!	!	!	!	!	!LO:HP:b
.	.	.	8gg\L	.	[ >
.	.	.	8ff\	.	.
.	.	.	8dd\	.	.
.	.	.	8b\J)	.	]
=122	=122	=122	=122	=122	=122
4D] 4DD\]	4f] 4B<] 4G</]	.	2.g/	.	.
4D 4DD\	4f 4B< 4G<'>/	.	.	.	.
4D 4DD\	4f 4B< 4G<'>/	.	.	.	.
4D 4DD\	4f 4B< 4G<'>/	.	4r	.	.
=123	=123	=123	=123	=123	=123
!	!	!	!	!	!LO:HP:b
[>1C [<1CC	[>1e [>1c< [>1G<	.	(>8e\L	a	<
.	.	.	8g\	.	.
.	.	.	8cc\	.	.
.	.	.	8ee\J	.	.
!	!	!	!	!	!LO:HP:b
.	.	.	8gg\L	.	[ >
.	.	.	8ee\	.	.
.	.	.	8cc\	.	]
.	.	.	8g\J)	.	.
!!LO:LB:g=original
=124	=124	=124	=124	=124	=124
4C] 4CC\]	4e] 4c<] 4G</]	.	2.e/	.	.
4C 4CC\	(>4e 4c< 4G<'>/	.	.	.	.
4C 4CC\	4e 4c< 4G<'>/	.	.	.	.
4C 4CC\	4e 4c< 4G<'>/)	.	4r	.	.
=125	=125	=125	=125	=125	=125
2.F 2.FF\	2.f 2.c< 2.A</	.	(>8f/L	a	.
.	.	.	8a/	.	.
.	.	.	8cc/	.	.
.	.	.	8ff/J	.	.
.	.	.	4aa\	.	.
4F 4FF\	4f 4c< 4A<^>/	.	4r)	.	.
=126	=126	=126	=126	=126	=126
!	!LO:N:vis=1	!	!	!	!
2.A 2.AA\	2.f#X 2.e-X 2.c/	.	(<8f#X/L	a	.
.	.	.	8a/	.	.
.	.	.	8cc/	.	.
.	.	.	8een/J	.	.
.	.	.	4ff#X\)	.	.
4A 4AA\	4f# 4e- 4c^>/	.	4r	.	.
=127	=127	=127	=127	=127	=127
4G 4GG/	4g 4en 4c/	.	(>8gg\L	.	.
.	.	.	8ff\	.	.
4r	4r	.	8ee\	.	.
.	.	.	8dd\J	.	.
2r	2r	.	8cc/L	.	.
.	.	.	8b/	.	.
.	.	.	8a/	.	.
.	.	.	8g/J)	.	.
=128	=128	=128	=128	=128	=128
4G 4GG\	4g 4d 4B/	.	(>8gg\L	.	.
.	.	.	8ff\	.	.
4r	4r	.	8ee\	.	.
.	.	.	8dd\J	.	.
2GG 2GGG\	2f 2d 2G</	.	8cc\L	.	.
.	.	.	8b\	.	.
.	.	.	8a\	.	.
.	.	.	8b\J	.	.
!!LO:PB:g=original
=129	=129	=129	=129	=129	=129
4C 4CC\	4e 4c 4G</	.	4cc\)	.	.
!	!	!LO:DY:b:rj	!	!	!
4c 4C\	4cc\	f	4cc\	do	.
4G 4GG/	4g/	.	4gg\	sol	.
4E 4EE/	4e/	.	4ee\	mi	.
=130	=130	=130	=130	=130	=130
4C 4CC/	4c/	.	4cc\	do.	.
4r	4r	.	4r	.	.
4C 4CC/	4ccc 4gg 4ee 4cc\	.	2r	.	.
4r	4r	.	.	.	.
==	==	==	==	==	==
*-	*-	*-	*-	*-	*-
!!title: @{OTL};
!!!RDF**kern: > = above
!!!RDF**kern: < = below
!!!RDF**kern: | = vertical stroke
!!!RDF**kern: N = linked
!!!RDF**kern: i = editorial accidental
!!!EED: Wojciech Jakubiak-Danek
!!!EST: 2021-06-03
!!!URL-scan: http://repozytorium.nifc.pl/skany/pl-wtm-nut--r1461
!!!ONB-nifc: UWAGA: skan 0011, s. 19 - 0015, s. 26
!!!AIN: 1 empty 1 tenor
!!!ENC: Katarzyna Serwa
!!!END: 2021-05-17
